X:100
T:Kiss the Maid Behind the Barrel (reel)  
B:CRE1.074 (Gearrchaile taobh thiar den Bhear)
F:file ID: cre.1/100kiss_m
S:Tommy Reck
N:The Gaelic translates to "Maid Behind the Bar", not "Barrel,"
but Breathnach mentions an O'Neill version of this tune with
the name I have used to avoid confusion with the "session"
"Maid Behind the Bar".
M:C
L:1/8
Q:180
R:reel
K:G
DGG2 AGG2|DGG2 cAFA|DGG2 AGG2|defd cAFA|
DGG2 AGG2|DGG2 cAFA|B2BG ABcA|defd cAFA||
"9"B2BG A3G|(3BcB BG cAFA|B2BG ABcA|defd cAFA|
B2BG A3G|(3BcB BG cAFA|B2BG ABcA|defd cAFA||
"17"dgg2 agg2|dgg2 bgaf|dff2 aff2|defd cAFA|
dgg2 agg2|dgg/f/g a2ga|b2bg afgf|defd cAFA||
"25"G2dB BGdG|G2dB cAFA|G2dG BGBc|defd cAFA|
G2dG BGdG|G2dB cAFA|GABG ABcA|defd cAFA|G8||

%%%

